X: 16129
T: Green Grow The Rushes
R: barndance
M: 4/4
K: Gmajor
G>ABA BGGB|Aeed eAAB|c>Bce d/c/B/A/ GB|1 AcBA GEEF:|2 AcBA GEE2||
g>fga gddg|eaag aeef|g>age d/c/B/A/ GB|1 AcBA GEE2:|2 AcBA GEEF||

